packages/dnb-ui-lib/assets/icons/check_medium.svg

<svg width="24" height="24" viewBox="0 0 24 24" fill="none" xmlns="http://www.w3.org/2000/svg">
<path d="M3.61309 13.4074C3.3745 13.0688 2.9066 12.9878 2.568 13.2264C2.2294 13.4649 2.14833 13.9328 2.38691 14.2714L3.61309 13.4074ZM6.675 19.0549L7.29823 18.6377C7.29491 18.6328 7.29153 18.6278 7.28809 18.6229L6.675 19.0549ZM9.2355 19.1314L8.6471 18.6664C8.64413 18.6701 8.64119 18.6739 8.63829 18.6778L9.2355 19.1314ZM21.5884 4.71201C21.8452 4.38705 21.79 3.9154 21.4651 3.65855C21.1401 3.4017 20.6684 3.45692 20.4116 3.78188L21.5884 4.71201ZM2.38691 14.2714L6.06191 19.4869L7.28809 18.6229L3.61309 13.4074L2.38691 14.2714ZM6.05177 19.4722C6.46941 20.096 7.16275 20.4796 7.91316 20.5021L7.95795 19.0027C7.69199 18.9948 7.44626 18.8588 7.29823 18.6377L6.05177 19.4722ZM7.91316 20.5021C8.66357 20.5245 9.37857 20.1829 9.83271 19.5851L8.63829 18.6778C8.47733 18.8896 8.22392 19.0107 7.95795 19.0027L7.91316 20.5021ZM9.8239 19.5965L21.5884 4.71201L20.4116 3.78188L8.6471 18.6664L9.8239 19.5965Z" fill="black"/>
</svg>

<svg width="24" height="24" viewBox="0 0 24 24" fill="none" xmlns="http://www.w3.org/2000/svg"><path d="M3.613 13.407a.75.75 0 00-1.226.864l1.226-.864zm3.062 5.648l.623-.417-.01-.015-.613.432zm2.56.076l-.588-.465a.39.39 0 00-.009.012l.598.453zM21.588 4.712a.75.75 0 00-1.176-.93l1.176.93zm-19.201 9.56l3.675 5.215 1.226-.864-3.675-5.216-1.226.864zm3.665 5.2a2.324 2.324 0 001.861 1.03l.045-1.5a.823.823 0 01-.66-.364l-1.246.834zm1.861 1.03c.75.023 1.466-.32 1.92-.917l-1.195-.907a.823.823 0 01-.68.325l-.045 1.5zm1.91-.905L21.589 4.711l-1.176-.93L8.647 18.666l1.177.93z" fill="#000"/></svg>
